src/cmd/sc_insertcolumnsafter.svg

<svg viewBox="0 0 16 16" xmlns="http://www.w3.org/2000/svg"><path d="m2 2v7 1 4h1 4 1 1v-1h-1-1v-3h2v-1h-2v-2h2v-1h-2v-3h2v-1h-2-4zm1 1h3v3h-3zm0 4h3v2h-3zm8 2v2h-2v1h2v2h1v-2h2v-1h-2v-2zm-8 1h3v3h-3z" fill="#232629"/><path d="m9 2v1 1 1.28125.71875 1 1 1h1.71875l1-1 1-1 .28125-.28125v.28125 2h1v-.71875-1.28125-1-.28125-1.4375-1.28125-1h-1.71875-2.28125zm1 1h1.28125l-1 1-.28125.28125v-.28125zm2.71875 0h.28125v2.28125l-.71875.71875-1 1-1 1-.28125.28125v-.28125-1-1-.28125l1.71875-1.71875z" fill="#762572"/></svg>

<?xml version="1.0" encoding="UTF-8" standalone="no"?>
<svg
   xmlns:dc="http://purl.org/dc/elements/1.1/"
   xmlns:cc="http://creativecommons.org/ns#"
   xmlns:rdf="http://www.w3.org/1999/02/22-rdf-syntax-ns#"
   xmlns:svg="http://www.w3.org/2000/svg"
   xmlns="http://www.w3.org/2000/svg"
   xmlns:sodipodi="http://sodipodi.sourceforge.net/DTD/sodipodi-0.dtd"
   xmlns:inkscape="http://www.inkscape.org/namespaces/inkscape"
   viewBox="0 0 16 16"
   version="1.1"
   id="svg6"
   sodipodi:docname="sc_insertcolumnsafter.svg"
   inkscape:version="0.92.4 (5da689c313, 2019-01-14)">
  <metadata
     id="metadata12">
    <rdf:RDF>
      <cc:Work
         rdf:about="">
        <dc:format>image/svg+xml</dc:format>
        <dc:type
           rdf:resource="http://purl.org/dc/dcmitype/StillImage" />
      </cc:Work>
    </rdf:RDF>
  </metadata>
  <defs
     id="defs10" />
  <sodipodi:namedview
     pagecolor="#ffffff"
     bordercolor="#666666"
     borderopacity="1"
     objecttolerance="10"
     gridtolerance="10"
     guidetolerance="10"
     inkscape:pageopacity="0"
     inkscape:pageshadow="2"
     inkscape:window-width="1920"
     inkscape:window-height="1011"
     id="namedview8"
     showgrid="true"
     inkscape:zoom="32"
     inkscape:cx="8.5104947"
     inkscape:cy="9.8837539"
     inkscape:window-x="0"
     inkscape:window-y="32"
     inkscape:window-maximized="1"
     inkscape:current-layer="svg6">
    <inkscape:grid
       type="xygrid"
       id="grid822" />
  </sodipodi:namedview>
  <path
     d="m 2,4 v 5 1 2 c 0,2 1,2 3,2 H 7 8 9 V 13 H 8 7 V 10 H 9 V 9 H 7 V 7 H 9 V 6 H 7 V 3 H 9 V 2 H 7 5 C 3,2 2,2 2,4 Z M 5,3 H 6 V 6 H 3 V 4 C 3,3 4,3 5,3 Z M 3,7 H 6 V 9 H 3 Z m 8,2 v 2 H 9 v 1 h 2 v 2 h 1 v -2 h 2 V 11 H 12 V 9 Z m -8,1 h 3 v 3 H 5 C 4,13 3,13 3,12 Z"
     id="path2"
     inkscape:connector-curvature="0"
     style="fill:#232629"
     sodipodi:nodetypes="ccccccccccccccccccccccccccccccccccccccccccccccccccscccc" />
  <path
     d="M 9,2 V 3 4 5.28125 6 7 8 9 h 1.71875 l 1,-1 1,-1 L 13,6.71875 V 7 9 h 1 V 8.28125 7 6 5.71875 4 C 14,2 13,2 11,2 h -1 z m 1,1 h 1.28125 l -1,1 L 10,4.28125 V 4 Z m 2.537,0.191 C 12.820153,3.3316966 13,3.5761501 13,4 V 5.28125 L 12.28125,6 l -1,1 -1,1 L 10,8.28125 V 8 7 6 5.71875 L 11.71875,4 Z"
     id="path4"
     inkscape:connector-curvature="0"
     style="fill:#762572"
     sodipodi:nodetypes="cccccccccccccccccccccccccccccccccccccccccc" />
</svg>
